X:1
T:Bob's polka
N:Sally Sloane played on melodeon
S:http://nla.gov.au/nla.obj-214810659/listen/0-1103~0-1208
Z:Ian Hayden, 2017
M:4/4
L:1/4
K:C
|:"C"{c}eG c>d|c "G"B "G"B2|fA d>e|d "C"c "C"c/B/c/d/|
|"C"eG c>d|c "G"B "G"B2|fA d>e|d "C"c "C"c2:|
|:"C"E3G|A>G EG|c2 "G"d>c|"C"c "G"B "G"B2|
|"G"D3E|F3B/B/|BADF|"C"E2>C2|
|"C"G3G|A>G EG|"C"c2 "G"d>c|"C"cB/B/ "G"B A/A/|
|AG/G/ GF/F/|FE/E/ "C"EG|ed"G"A>B|"C"c2-c2:|
